X: 2421
T: Ballinacourtey, The
R: jig
M: 6/8
K: Gmajor
|:GED DDD|GGE GGE|AGE c2A|BGE EDE|
GED DDD|GGE GGA|Bcd dBG|AGF G3:|
|:c3 cBA|B3 BAG|AGE c2A|BGE EDE|
[1 cde edc|Bcd dBG|Bcd dBG|AGF G3:|
[2 GED DDD|GGE GGA|Bcd dBG|AGF G3||

